X: 57
T: La Bastringue
O: Quebec
R: reel
M: C|
L: 1/8
K: D
|: "D"f2ff f2gf | "A7"e2c2 "D"d4 | "A7"c2d2 efec | "D"d2e2 f2d2 | 
"D"f2ff f2gf | "A7"e2c2 "D"d4 | "G"g2f2 efed | "A7"B2c2 "D"d4 :|
|:"D"d2f2 a2f2 | "C"=c2e2 g2e2 | "D"d2f2 a2fa | "A7"bgec dcBA | 
"D"d2f2 a2f2 | "C"=c2e2g2e2 | "D"d2f2 a2fa | "A7"bgec "D"d4 :|
